main-pages/gulp-scss-starter/dist/img/default/offer/services9.svg

<svg width="26" height="20" viewBox="0 0 26 20" fill="none" xmlns="http://www.w3.org/2000/svg">
<path fill-rule="evenodd" clip-rule="evenodd" d="M12.5148 1.96788C11.8093 1.96363 7.21432 2.07112 5.71093 5.53912L5.42433 6.30774C4.96873 6.04372 3.8157 5.55888 2.65938 5.63597C1.46985 5.71527 1.0683 6.56402 1.01778 6.98497L1.01763 6.98624L1.01542 7.01919C0.999533 7.25466 0.979545 7.55093 1.04903 7.83684C1.1224 8.13872 1.29541 8.42932 1.67209 8.6302C1.94034 8.77326 2.17707 8.81909 2.3594 8.83101C2.44846 8.83683 2.52421 8.83453 2.58339 8.83171C2.07008 9.25773 1.74319 9.90058 1.74319 10.6198L1.7432 16.9585C1.7432 18.1076 2.67473 19.0391 3.82384 19.0391C4.97295 19.0391 5.90449 18.1076 5.90449 16.9585L5.90449 15.652H12.5148V15.5552H1.83997L1.83997 10.6198C1.83997 9.3905 2.83649 8.39397 4.06577 8.39397H12.5148V8.29715H4.78579L5.80072 5.57531C6.59945 3.73533 8.2891 2.85602 9.79572 2.43735C10.5482 2.22826 11.2508 2.13537 11.7656 2.09483C12.0228 2.07457 12.2327 2.06741 12.3781 2.06531C12.4333 2.06451 12.4792 2.06444 12.5148 2.06465V1.96788ZM1.83997 15.652H5.80771V16.9585C5.80771 18.0541 4.9195 18.9423 3.82384 18.9423C2.72818 18.9423 1.83997 18.0541 1.83997 16.9585L1.83997 15.652ZM2.71197 8.73234C3.09312 8.45848 3.56061 8.2972 4.06577 8.2972L4.6825 8.29715L5.39001 6.39976C4.95473 6.14357 3.8086 5.65635 2.66582 5.73253C1.534 5.80799 1.16094 6.60924 1.11402 6.99525L1.11222 7.02206C1.09622 7.26005 1.0772 7.54297 1.14307 7.81398C1.21082 8.09275 1.36845 8.3586 1.71763 8.54481C1.97187 8.6804 2.19481 8.72327 2.36571 8.73444C2.45135 8.74004 2.52427 8.73769 2.5825 8.73486L2.59958 8.734L2.61003 8.73346C2.62812 8.73252 2.64489 8.73164 2.6594 8.73117C2.67776 8.73058 2.69611 8.73047 2.71197 8.73234Z" stroke="#616161"/>
<path fill-rule="evenodd" clip-rule="evenodd" d="M7.12016 11.0963C6.66122 10.8228 5.95112 10.6189 5.34553 10.6787C5.04207 10.7086 4.76063 10.8053 4.55114 10.9973C4.34069 11.1902 4.20802 11.4745 4.19428 11.8689C4.17699 12.2502 4.46273 13.0122 5.50177 13.449C6.02678 13.6697 6.55436 13.6251 6.98723 13.48C7.41884 13.3352 7.76163 13.0888 7.91891 12.8976C8.08217 12.699 8.1315 12.3947 8.01579 12.0688C7.89997 11.7425 7.61921 11.3937 7.12016 11.0963ZM4.29099 11.8725C4.30393 11.4994 4.42827 11.2412 4.61653 11.0686C4.8058 10.8952 5.06488 10.8036 5.35504 10.775C5.93671 10.7175 6.62635 10.9147 7.07061 11.1794C7.55529 11.4683 7.81805 11.801 7.92459 12.1012C8.03126 12.4016 7.98179 12.6687 7.84416 12.8361C7.70056 13.0107 7.37438 13.2481 6.95647 13.3882C6.53982 13.5279 6.03734 13.5691 5.53927 13.3598C4.53241 12.9365 4.27563 12.2081 4.29099 11.8725Z" stroke="#616161"/>
<path fill-rule="evenodd" clip-rule="evenodd" d="M13.4833 1.96788C14.1887 1.96363 18.7837 2.07112 20.2871 5.53912L20.5737 6.30774C21.0293 6.04372 22.1824 5.55888 23.3387 5.63597C24.5282 5.71527 24.9297 6.56402 24.9803 6.98497L24.9804 6.98624L24.9826 7.01919C24.9985 7.25466 25.0185 7.55093 24.949 7.83684C24.8757 8.13872 24.7026 8.42932 24.326 8.6302C24.0577 8.77326 23.821 8.81909 23.6386 8.83101C23.5496 8.83683 23.4738 8.83453 23.4147 8.83171C23.928 9.25773 24.2549 9.90058 24.2549 10.6198L24.2549 16.9585C24.2549 18.1076 23.3233 19.0391 22.1742 19.0391C21.0251 19.0391 20.0936 18.1076 20.0936 16.9585V15.652H13.4833V15.5552H24.1581L24.1581 10.6198C24.1581 9.3905 23.1616 8.39397 21.9323 8.39397H13.4833V8.29715H21.2123L20.1973 5.57531C19.3986 3.73533 17.7089 2.85602 16.2023 2.43735C15.4498 2.22826 14.7472 2.13537 14.2325 2.09483C13.9753 2.07457 13.7653 2.06741 13.62 2.06531C13.5647 2.06451 13.5188 2.06444 13.4833 2.06465V1.96788ZM24.1581 15.652H20.1903V16.9585C20.1903 18.0541 21.0785 18.9423 22.1742 18.9423C23.2699 18.9423 24.1581 18.0541 24.1581 16.9585L24.1581 15.652ZM23.2861 8.73234C22.9049 8.45848 22.4374 8.2972 21.9323 8.2972L21.3155 8.29715L20.608 6.39976C21.0433 6.14357 22.1894 5.65635 23.3322 5.73253C24.464 5.80799 24.8371 6.60924 24.884 6.99525L24.8858 7.02206C24.9018 7.26005 24.9208 7.54297 24.855 7.81398C24.7872 8.09275 24.6296 8.3586 24.2804 8.54481C24.0262 8.6804 23.8032 8.72327 23.6323 8.73444C23.5467 8.74004 23.4738 8.73769 23.4155 8.73486L23.3985 8.734L23.388 8.73346C23.3699 8.73252 23.3532 8.73164 23.3386 8.73117C23.3203 8.73058 23.3019 8.73047 23.2861 8.73234Z" stroke="#616161"/>
<path fill-rule="evenodd" clip-rule="evenodd" d="M18.8779 11.0963C19.3368 10.8228 20.0469 10.6189 20.6525 10.6787C20.956 10.7086 21.2374 10.8053 21.4469 10.9973C21.6574 11.1902 21.79 11.4745 21.8038 11.8689C21.8211 12.2502 21.5353 13.0122 20.4963 13.449C19.9713 13.6697 19.4437 13.6251 19.0108 13.48C18.5792 13.3352 18.2364 13.0888 18.0791 12.8976C17.9159 12.699 17.8665 12.3947 17.9823 12.0688C18.0981 11.7425 18.3788 11.3937 18.8779 11.0963Z" stroke="#616161"/>
<path d="M13 18.5V0" stroke="#616161"/>
<path d="M16 11H14" stroke="#616161"/>
<path d="M16 13H14" stroke="#616161"/>
<path d="M23 6L23.5815 9.09386" stroke="#616161"/>
</svg>

<svg width="26" height="20" viewBox="0 0 26 20" fill="none" xmlns="http://www.w3.org/2000/svg"><path fill-rule="evenodd" clip-rule="evenodd" d="M12.515 1.968c-.706-.004-5.3.103-6.804 3.571l-.287.769c-.455-.264-1.608-.75-2.765-.672-1.19.08-1.59.928-1.641 1.349v.001l-.003.033c-.015.236-.035.532.034.818.073.302.246.592.623.793a1.673 1.673 0 00.911.202 2.318 2.318 0 00-.84 1.788v6.339a2.08 2.08 0 004.161 0v-1.307h6.61v-.097H1.84V10.62c0-1.23.996-2.226 2.226-2.226h8.449v-.097h-7.73l1.016-2.722c.798-1.84 2.488-2.719 3.995-3.138a10.552 10.552 0 012.719-.372v-.097zM1.84 15.652h3.968v1.307a1.984 1.984 0 01-3.968 0v-1.307zm.872-6.92a2.312 2.312 0 011.354-.435h.617L5.39 6.4c-.435-.256-1.581-.744-2.724-.667-1.132.075-1.505.876-1.552 1.262l-.002.027c-.016.238-.035.521.031.792.068.279.225.545.575.73a1.576 1.576 0 00.865.19h.027l.05-.003.052.001z" stroke="#616161"/><path fill-rule="evenodd" clip-rule="evenodd" d="M7.12 11.096c-.459-.273-1.169-.477-1.774-.417-.304.03-.585.126-.795.318-.21.193-.343.478-.357.872-.017.381.269 1.143 1.308 1.58.525.22 1.052.176 1.485.031.432-.145.775-.391.932-.582.163-.199.213-.503.097-.83-.116-.325-.397-.674-.896-.972zm-2.829.777c.013-.374.137-.632.326-.804.189-.174.448-.265.738-.294.582-.058 1.271.14 1.716.404.484.29.747.622.854.922.106.3.057.568-.08.735-.144.175-.47.412-.889.552-.416.14-.919.181-1.417-.028-1.007-.423-1.263-1.152-1.248-1.487zm9.192-9.905c.706-.004 5.3.103 6.804 3.571l.287.769c.455-.264 1.608-.75 2.765-.672 1.19.08 1.59.928 1.641 1.349v.001l.003.033c.015.236.035.532-.034.818a1.177 1.177 0 01-.623.793 1.673 1.673 0 01-.911.202c.513.426.84 1.069.84 1.788v6.339a2.08 2.08 0 01-4.161 0v-1.307h-6.61v-.097h10.674V10.62c0-1.23-.996-2.226-2.226-2.226h-8.449v-.097h7.73l-1.016-2.722c-.798-1.84-2.488-2.719-3.995-3.138a10.553 10.553 0 00-2.719-.372v-.097zm10.675 13.684H20.19v1.307a1.984 1.984 0 003.968 0v-1.307zm-.872-6.92a2.312 2.312 0 00-1.354-.435h-.616L20.608 6.4c.435-.256 1.581-.744 2.724-.667 1.132.075 1.505.876 1.552 1.262l.002.027c.016.238.035.521-.031.792a1.08 1.08 0 01-.575.73 1.576 1.576 0 01-.864.19h-.028l-.05-.003-.052.001z" stroke="#616161"/><path fill-rule="evenodd" clip-rule="evenodd" d="M18.878 11.096c.459-.273 1.169-.477 1.774-.417.304.03.585.126.795.318.21.193.343.478.357.872.017.381-.269 1.143-1.308 1.58-.525.22-1.052.176-1.485.031-.432-.145-.775-.391-.932-.582-.163-.199-.213-.503-.097-.83.116-.325.397-.674.896-.972z" stroke="#616161"/><path d="M13 18.5V0m3 11h-2m2 2h-2m9-7l.581 3.094" stroke="#616161"/></svg>
